svg/icon/sberbank.svg

<svg height="32" viewBox="0 0 32 32" width="32" xmlns="http://www.w3.org/2000/svg" xmlns:xlink="http://www.w3.org/1999/xlink"><defs><linearGradient id="a" x1="50%" x2="50%" y1="0%" y2="100%"><stop offset="0" stop-color="#fff" stop-opacity=".5"/><stop offset="1" stop-opacity=".5"/></linearGradient><circle id="b" cx="16" cy="15" r="15"/><filter id="c" height="111.7%" width="111.7%" x="-5.8%" y="-4.2%"><feOffset dy=".5" in="SourceAlpha" result="shadowOffsetOuter1"/><feGaussianBlur in="shadowOffsetOuter1" result="shadowBlurOuter1" stdDeviation=".5"/><feComposite in="shadowBlurOuter1" in2="SourceAlpha" operator="out" result="shadowBlurOuter1"/><feColorMatrix in="shadowBlurOuter1" values="0 0 0 0 0   0 0 0 0 0   0 0 0 0 0  0 0 0 0.199473505 0"/></filter><path id="d" d="m22.6809817 6.36781609.9447853.85823755-11.931288 6.81226056-5.77668693-3.3256705.53987728-1.07279696 5.23680965 2.97701146zm-2.4024539-1.36781609 1.2687116.64367816-9.8527604 5.63218394-4.58895691-2.6015326.78282206-.93869732 3.80613485 2.1724138zm4.184049 3.11111111.7018404.93869732-13.4699382 7.69731797-6.50552127-3.7011494.29693251-1.1800766 6.20858876 3.5402299zm1.9435582 3.45977009c.39573 1.1087357.593865 2.2705747.593865 3.4865901 0 1.2160153-.198135 2.3960919-.593865 3.5402298l-.2699387.724138c-.5536456 1.2994116-1.3505811 2.4825614-2.3484661 3.48659-1.0069406.9891098-2.1991146 1.7726967-3.5092024 2.3065134-1.3853251.5900383-2.8159999.8850575-4.2920244.8850575-1.4938404 0-2.9245152-.2950192-4.2920244-.8850575-1.2778895-.5363984-2.43862569-1.3050574-3.48220848-2.3065134-1.02576684-1.0191571-1.8085889-2.1809961-2.34846618-3.48659-.57064998-1.3501905-.86432105-2.7999661-.86380366-4.2643678v-.724138l6.69447832 3.7816092 14.117791-8.045977z"/><filter id="e" height="116.7%" width="115.9%" x="-8%" y="-6%"><feOffset dy=".5" in="SourceAlpha" result="shadowOffsetOuter1"/><feGaussianBlur in="shadowOffsetOuter1" result="shadowBlurOuter1" stdDeviation=".5"/><feColorMatrix in="shadowBlurOuter1" values="0 0 0 0 0   0 0 0 0 0   0 0 0 0 0  0 0 0 0.204257246 0"/></filter></defs><g fill="none" fill-rule="evenodd"><g fill-rule="nonzero"><use fill="#000" filter="url(#c)" xlink:href="#b"/><use fill="#48b254" fill-rule="evenodd" xlink:href="#b"/><use fill="url(#a)" fill-rule="evenodd" xlink:href="#b"/><circle cx="16" cy="15" r="14.5" stroke="#000" stroke-opacity=".097"/></g><use fill="#000" filter="url(#e)" xlink:href="#d"/><use fill="#fff" xlink:href="#d"/></g></svg>

<svg xmlns="http://www.w3.org/2000/svg" xmlns:xlink="http://www.w3.org/1999/xlink" width="32" height="32" viewBox="0 0 32 32">
  <defs>
    <linearGradient id="sberbank-c" x1="50%" x2="50%" y1="0%" y2="100%">
      <stop offset="0%" stop-color="#FFF" stop-opacity=".5"/>
      <stop offset="100%" stop-opacity=".5"/>
    </linearGradient>
    <circle id="sberbank-b" cx="16" cy="15" r="15"/>
    <filter id="sberbank-a" width="111.7%" height="111.7%" x="-5.8%" y="-4.2%" filterUnits="objectBoundingBox">
      <feOffset dy=".5" in="SourceAlpha" result="shadowOffsetOuter1"/>
      <feGaussianBlur in="shadowOffsetOuter1" result="shadowBlurOuter1" stdDeviation=".5"/>
      <feComposite in="shadowBlurOuter1" in2="SourceAlpha" operator="out" result="shadowBlurOuter1"/>
      <feColorMatrix in="shadowBlurOuter1" values="0 0 0 0 0   0 0 0 0 0   0 0 0 0 0  0 0 0 0.199473505 0"/>
    </filter>
    <path id="sberbank-e" d="M22.6809817,6.36781609 L23.625767,7.22605364 L11.694479,14.0383142 L5.91779207,10.7126437 L6.45766935,9.63984674 L11.694479,12.6168582 L22.6809817,6.36781609 Z M20.2785278,5 L21.5472394,5.64367816 L11.694479,11.2758621 L7.10552209,8.6743295 L7.88834415,7.73563218 L11.694479,9.90804598 L20.2785278,5 Z M24.4625768,8.11111111 L25.1644172,9.04980843 L11.694479,16.7471264 L5.18895773,13.045977 L5.48589024,11.8659004 L11.694479,15.4061303 L24.4625768,8.11111111 Z M26.406135,11.5708812 C26.801865,12.6796169 27,13.8414559 27,15.0574713 C27,16.2734866 26.801865,17.4535632 26.406135,18.5977011 L26.1361963,19.3218391 C25.5825507,20.6212507 24.7856152,21.8044005 23.7877302,22.8084291 C22.7807896,23.7975389 21.5886156,24.5811258 20.2785278,25.1149425 C18.8932027,25.7049808 17.4625279,26 15.9865034,26 C14.492663,26 13.0619882,25.7049808 11.694479,25.1149425 C10.4165895,24.5785441 9.25585331,23.8098851 8.21227052,22.8084291 C7.18650368,21.789272 6.40368162,20.627433 5.86380434,19.3218391 C5.29315436,17.9716486 4.99948329,16.521873 5.00000068,15.0574713 L5.00000068,14.3333333 L11.694479,18.1149425 L25.81227,10.0689655 L26.406135,11.5708812 Z"/>
    <filter id="sberbank-d" width="115.9%" height="116.7%" x="-8%" y="-6%" filterUnits="objectBoundingBox">
      <feOffset dy=".5" in="SourceAlpha" result="shadowOffsetOuter1"/>
      <feGaussianBlur in="shadowOffsetOuter1" result="shadowBlurOuter1" stdDeviation=".5"/>
      <feColorMatrix in="shadowBlurOuter1" values="0 0 0 0 0   0 0 0 0 0   0 0 0 0 0  0 0 0 0.204257246 0"/>
    </filter>
  </defs>
  <g fill="none" fill-rule="evenodd">
    <g fill-rule="nonzero">
      <use fill="#000" filter="url(#sberbank-a)" xlink:href="#sberbank-b"/>
      <use fill="#48B254" fill-rule="evenodd" xlink:href="#sberbank-b"/>
      <use fill="url(#sberbank-c)" fill-rule="evenodd" style="mix-blend-mode:soft-light" xlink:href="#sberbank-b"/>
      <circle cx="16" cy="15" r="14.5" stroke="#000" stroke-opacity=".097"/>
    </g>
    <use fill="#000" filter="url(#sberbank-d)" xlink:href="#sberbank-e"/>
    <use fill="#FFF" xlink:href="#sberbank-e"/>
  </g>
</svg>
